public/disc.svg

<svg fill="none" height="32" viewBox="0 0 32 32" width="32" xmlns="http://www.w3.org/2000/svg"><g stroke="#111" stroke-linecap="square" stroke-miterlimit="10" stroke-width="2"><path d="m16 30.5c8.0081 0 14.5-6.4919 14.5-14.5 0-8.00813-6.4919-14.5-14.5-14.5-8.00813 0-14.5 6.49187-14.5 14.5 0 8.0081 6.49187 14.5 14.5 14.5z"/><path d="m5.75 12c.55478-1.4163 1.39636-2.70255 2.4719-3.7781 1.07555-1.07554 2.3618-1.91712 3.7781-2.4719"/><path d="m16 20c2.2091 0 4-1.7909 4-4s-1.7909-4-4-4-4 1.7909-4 4 1.7909 4 4 4z"/></g></svg>

<svg width="32" height="32" viewBox="0 0 32 32" fill="none" xmlns="http://www.w3.org/2000/svg">
<path d="M16 30.5C24.0081 30.5 30.5 24.0081 30.5 16C30.5 7.99187 24.0081 1.5 16 1.5C7.99187 1.5 1.5 7.99187 1.5 16C1.5 24.0081 7.99187 30.5 16 30.5Z" stroke="#111111" stroke-width="2" stroke-miterlimit="10" stroke-linecap="square"/>
<path d="M5.75 12C6.30478 10.5837 7.14636 9.29745 8.2219 8.2219C9.29745 7.14636 10.5837 6.30478 12 5.75" stroke="#111111" stroke-width="2" stroke-miterlimit="10" stroke-linecap="square"/>
<path d="M16 20C18.2091 20 20 18.2091 20 16C20 13.7909 18.2091 12 16 12C13.7909 12 12 13.7909 12 16C12 18.2091 13.7909 20 16 20Z" stroke="#111111" stroke-width="2" stroke-miterlimit="10" stroke-linecap="square"/>
</svg>
